svgs/sharp-regular/bring-forward.svg

<svg xmlns="http://www.w3.org/2000/svg" viewBox="0 0 512 512"><!--! Font Awesome Pro 6.6.0 by @fontawesome - https://fontawesome.com License - https://fontawesome.com/license (Commercial License) Copyright 2024 Fonticons, Inc. --><path d="M208 464l256 0 0-256-80 0 0-48 80 0 48 0 0 48 0 256 0 48-48 0-256 0-48 0 0-48 0-80 48 0 0 80zM0 352L0 0 352 0l0 352L0 352z"/></svg>

<svg xmlns="http://www.w3.org/2000/svg" viewBox="0 0 512 512"><!--! Font Awesome Pro 6.4.2 by @fontawesome - https://fontawesome.com License - https://fontawesome.com/license (Commercial License) Copyright 2023 Fonticons, Inc. --><path d="M208 464H464V208H384V160h80 48v48V464v48H464 208 160V464 384h48v80zM0 352V0H352V352H0z"/></svg>
